X:18
T:Harlequin every where. Roose.0196
B:Roose MS, 1850
%See also VMP transcription of: William Clarke MS, Lincoln, 1770 (WCl.58).
Z:Village Music Project 2019 Roger Hare
M:6/8
L:1/8
Q:3/8=80
K:A
|: A>BA BGE | ecA BGE | e2 e f2 e | dcB c2 B |
A>BA BGE | ecA BGE | e2 e f2 e | dcB A3 :|
|: {d}c2 B ABA | e2 d cdc | a2 e f2 e | edc c2 B |
c2 B A>BA | e2 d cdc | a2 e f2 e | dcB A3 :|

